app/dist/common/images/illinois-tool-works.svg

<svg height="18" width="18" xmlns="http://www.w3.org/2000/svg"><path d="m0 0h18v18h-18z" fill="#bf2519"/><path d="m6.406 11.998 1.297-5.002h1.29l.211-.996h-4.196l-.238.996h1.523l-1.29 5.004h1.403zm-2.663-5.997-1.51 5.997h-.233l1.509-5.997zm.383 0-1.51 5.997h-.233l1.509-5.997zm-1.126 5.997 1.509-5.997h-.234l-1.509 5.997zm1.892-5.997-1.509 5.997h-.234l1.509-5.997zm8.18 4.411c-.002.057.079.073.098.018l1.47-4.23h1.06l-2.333 5.6h-.946l.088-4.513c0-.055-.076-.071-.097-.02l-1.852 4.533h-1.03l.19-5.6h.97l-.34 4.194c-.004.057.075.076.097.023l1.687-4.217h1.118zm2.928-4.412h-1.5l-1.201 3.382.161-3.382h-1.46l-1.383 3.382.292-3.382h-1.384l-.202 6h1.37l1.553-3.755-.024 3.755h1.278z" fill="#fff"/></svg>

<!-- by TradingView --><svg width="18" height="18" xmlns="http://www.w3.org/2000/svg"><path fill="#BF2519" d="M0 0h18v18H0z"/><path d="M6.406 11.998l1.297-5.002h1.29L9.204 6H5.008l-.238.996h1.523L5.003 12h1.403zM3.743 6.001l-1.51 5.997H2l1.509-5.997h.234zm.383 0l-1.51 5.997h-.233l1.509-5.997h.234zM3 11.998l1.509-5.997h-.234l-1.509 5.997H3zm1.892-5.997l-1.509 5.997h-.234l1.509-5.997h.234zm8.18 4.411c-.002.057.079.073.098.018l1.47-4.23h1.06l-2.333 5.6h-.946l.088-4.513c0-.055-.076-.071-.097-.02L10.56 11.8h-1.03l.19-5.6h.97l-.34 4.194c-.004.057.075.076.097.023L12.134 6.2h1.118l-.18 4.212zM16 6h-1.5l-1.201 3.382L13.46 6H12l-1.383 3.382L10.909 6H9.525l-.202 6h1.37l1.553-3.755L12.222 12H13.5L16 6z" fill="#fff"/></svg>
